icons/briefcase-24.svg

<svg width="24" height="24" viewBox="0 0 24 24" fill="none" xmlns="http://www.w3.org/2000/svg">
<path fill-rule="evenodd" clip-rule="evenodd" d="M7.5 1.75C7.5 0.783502 8.2835 0 9.25 0H14.75C15.7165 0 16.5 0.783502 16.5 1.75V4H21.25C22.2165 4 23 4.7835 23 5.75V8.75V20.25C23 21.2165 22.2165 22 21.25 22H2.75C1.7835 22 1 21.2165 1 20.25V8.75V5.75C1 4.7835 1.7835 4 2.75 4H7.5V1.75ZM2.5 11.9905V20.25C2.5 20.3881 2.61193 20.5 2.75 20.5H21.25C21.3881 20.5 21.5 20.3881 21.5 20.25V11.9905C20.7588 12.6201 19.7988 13 18.75 13H5.25C4.20125 13 3.24122 12.6201 2.5 11.9905ZM21.5 8.75C21.5 10.2688 20.2688 11.5 18.75 11.5H5.25C3.73122 11.5 2.5 10.2688 2.5 8.75V5.75C2.5 5.61193 2.61193 5.5 2.75 5.5H7.5H16.5H21.25C21.3881 5.5 21.5 5.61193 21.5 5.75V8.75ZM15 1.75V4H9V1.75C9 1.61193 9.11193 1.5 9.25 1.5H14.75C14.8881 1.5 15 1.61193 15 1.75Z" fill="black"/>
</svg>

<svg xmlns="http://www.w3.org/2000/svg" width="24" height="24" viewBox="0 0 24 24"><path fill-rule="evenodd" d="M7.5 1.75C7.5.784 8.284 0 9.25 0h5.5c.966 0 1.75.784 1.75 1.75V4h4.75c.966 0 1.75.784 1.75 1.75v14.5A1.75 1.75 0 0121.25 22H2.75A1.75 1.75 0 011 20.25V5.75C1 4.784 1.784 4 2.75 4H7.5V1.75zm-5 10.24v8.26c0 .138.112.25.25.25h18.5a.25.25 0 00.25-.25v-8.26A4.233 4.233 0 0118.75 13H5.25a4.233 4.233 0 01-2.75-1.01zm19-3.24a2.75 2.75 0 01-2.75 2.75H5.25A2.75 2.75 0 012.5 8.75v-3a.25.25 0 01.25-.25h18.5a.25.25 0 01.25.25v3zm-6.5-7V4H9V1.75a.25.25 0 01.25-.25h5.5a.25.25 0 01.25.25z"/></svg>
